X:1
T:6 Lieder, Op.1
T:Wiegenlied
T:3. Wiegenlied
T:Peter Cornelius
T:Peter Cornelius
T:6 Lieder, Op.1
T:OpenScore (CC0)
T:OpenScore (CC0)
T:OpenScore (CC0)
C:Peter Cornelius
Z:Peter Cornelius
Z:OpenScore (CC0)
%%score ( 1 2 ) { ( 3 5 ) | ( 4 6 ) }
L:1/8
Q:1/4=60
M:6/8
K:D
V:1 treble nm="Voice"
V:2 treble 
V:3 treble nm="Piano"
V:5 treble 
V:4 treble 
V:6 treble 
V:1
!p!"^Etwas bewegt" A2 A (AB) G | A2 F D2 z | A2!<(! A (Ad)!<)! B |!>(! A3!>)! F2 z | B2 B (Bc) B | %5
w: 1. Vög- lein fliegt _ dem|Nest- chen zu,|hat sich müd' * ge-|flo- gen;|Schiff- lein sucht _ im|
w: 2. Son- ne denkt _ nun|auch, sie hätt'|lang ge- nug _ ge-|schie- nen,|legt sich in _ ihr|
w: 3. Vög- lein sitzt _ im|war- men Nest,|Schiff- lein liegt _ im|Ha- fen,|Son- ne schläft _ schon|
!<(! A2!<)! E"^ten." !tenuto!G3- | .G .F .E (.D.F) .G | A3 F2 z | %8
w: Ha- fen Ruh'|_ ~vor den wan- ken- den|Wo- gen.|
w: Him- mel- bett,|_ vor den ro- ten Gar-|di- nen.|
w: tief und fest,|_ auch mein Kind _ will|schla- fen.|
!<(! B2 B!<)!"^weich"[Q:1/4=50]"^T" (ed) B |[Q:1/4=60]"^T"!<(! (Ac) B!<)!"^ten." !tenuto!A3- | %10
w: Schiff- lein sucht _ im|Ha- * fen Ruh'|
w: Legt sich in _ ihr|Him- * mel- bett,|
w: Son- ne schläft * schon|tief _ und fest,|
 A .G .F (.F .E) .D |[Q:1/4=50]"^T" E3[Q:1/4=60]"_T" D2 z | z6 | z6 | z6 |1 z6 :|3 z6 |] %17
w: _ vor den wan- ken- den|Wo- gen.||||||
w: _ mit den ro- ten Gar-|di- nen.||||||
w: _ auch mein Kind _ will|schla- fen.||||||
V:2
 x6 | x6 | x6 | x6 | x6 | x6 | x3 D F x | x6 | x6 | x6 | x3 FE x | x6 | x6 | x6 | x6 |1 x6 :|3 %16
 x6 |] %17
V:3
!p! (f/d/f/d/f/d/ f/d/g/d/e/d/) | (f/d/f/d/f/d/!>(! d'/d/c'/d/b/d/)!>)! | %2
 (a/d/a/d/a/d/ a/d/b/d/d'/d/) |!<(! (d/a/c/a/B/a/!<)!!>(! c/a/d/a/d/a/)!>)! | %4
 (d/b/d/b/d/b/ B/g/B/g/B/g/) | (A/e/A/e/A/e/!<(! d/g/^c/g/d/g/)!<)! | %6
!>(! (e/a/e/a/e/a/!>)! d/a/d/a/d/a/) |!<(! (d/a/c/a/B/a/!<)!!>(! c/a/d/a/d/a/)!>)! | %8
 (d/b/d/b/d/b/ [de]/b/[de]/b/[de]/b/) |"_etwas bewegter" (e/a/c/a/d/a/"_cresc." e/a/e/a/c/a/ | %10
 d/a/d/b/d/b/ d/a/g/e/f/d/) |"_ruhig" (dc/B/c) (dfa | !>!b2 a"_nachahmend" f3) | (!>!d'ba f3) | %14
 (!>!afb) (!>!afb) |1 a3- a2 z :|3 a3- a2 z |] %17
V:4
 (A/D/A/D/A/D/ A/D/B/D/G/D/) | (A/D/A/D/A/D/ B/D/A/D/G/D/) | (F/D/F/D/F/D/ F/D/G/D/B/D/) | %3
 (G/A,/G/A,/G/A,/ F/D/F/D/F/D/) | ((G/G,/G/G,/G/G,/ G/E/G/E/G/E/)) | %5
 (C/G/C/G/C/G/ B,/G/^A,/G/B,/G/) | (C/G/C/G/C/G/ F/D/F/D/F/D/) | (G/A,/G/A,/G/A,/ F/D/F/D/F/D/) | %8
 G/G,/G/G,/G/G,/ G/G,/G/G,/G/G,/ | (CA,B, CGE | FG^G A^AB) | ([G,E] [A,G]2) (F/D/F/D/F/D/ | %12
 FGA) (!>!B2 A | FGA) (!>!dBA | FAG FAG) |1 (F/D/F/D/F/D/ F/D/F/D/F/D/) :|3 (F/D/F/D/F/D/-) F2 z |] %17
V:5
 x6 | x6 | x6 | dcB cdd | x6 | x6 | x6 | dcB cdd | x6 | x6 | x6 | x6 | x6 | x6 | d3 d3 |1 %15
 d3- d2 z :|3 d3- d2 z |] %17
V:6
 x6 | x6 | x6 | x6 | x6 | x6 | x6 | x6 | x6 | x6 | x6 | x6 | F/D/G/D/A/D/ B/D/B/D/A/D/ | %13
 F/D/G/D/A/D/ d/D/B/D/A/D/ | F/D/A/D/G/D/ F/D/A/D/G/D/ |1 x6 :|3 x3 D2 x |] %17

